assets/icons/icon-arrow-alt__left/web/icon-arrow-alt__left.svg

<?xml version="1.0" encoding="UTF-8" standalone="no"?>
<svg width="48px" height="48px" viewBox="0 0 48 48" version="1.1" xmlns="http://www.w3.org/2000/svg" xmlns:xlink="http://www.w3.org/1999/xlink">
    <!-- Generator: Sketch 45.2 (43514) - http://www.bohemiancoding.com/sketch -->
    <title>icon-arrow-alt__left</title>
    <desc>Created with Sketch.</desc>
    <defs></defs>
    <g id="Symbols" stroke="none" stroke-width="1" fill="none" fill-rule="evenodd">
        <g id="icon-arrow-alt__left" fill="#2D2D2D">
            <path d="M17.4545381,25.2722331 L18.5449908,26.3626858 C18.9319137,26.7496087 18.9317168,27.3771314 18.5384698,27.7703784 C18.1479455,28.1609027 17.5124754,28.1585976 17.1307772,27.7768994 L14.2893082,24.9354303 C14.0969161,24.7430382 14.000237,24.4911593 14,24.238174 C14.0035272,23.9765782 14.0995187,23.7240482 14.2893082,23.5342587 L17.1307772,20.6927896 C17.5177001,20.3058668 18.1452229,20.3060636 18.5384698,20.6993106 C18.9289941,21.0898349 18.926689,21.725305 18.5449908,22.1070032 L17.3797609,23.2722331 L33.0066023,23.2722331 C33.5552407,23.2722331 34,23.7160979 34,24.2722331 C34,24.8245179 33.5550537,25.2722331 33.0066023,25.2722331 L17.4545381,25.2722331 Z"></path>
        </g>
    </g>
</svg>

<svg width="48" height="48" viewBox="0 0 48 48" xmlns="http://www.w3.org/2000/svg"><title>icon-arrow-alt__left</title><path d="M17.455 25.272l1.09 1.09a.993.993 0 0 1-.007 1.408 1 1 0 0 1-1.407.007l-2.842-2.842a.984.984 0 0 1-.289-.697c.004-.261.1-.514.29-.704l2.84-2.841a.993.993 0 0 1 1.408.006 1 1 0 0 1 .007 1.408l-1.165 1.165h15.627c.548 0 .993.444.993 1 0 .553-.445 1-.993 1H17.455z" fill="#2D2D2D" fill-rule="evenodd"/></svg>
